brandFactory_export/2.Regular/Indicativos y marcaciones_2Regular.svg

<?xml version="1.0" encoding="UTF-8"?>
<svg width="24px" height="24px" viewBox="0 0 24 24" version="1.1" xmlns="http://www.w3.org/2000/svg" xmlns:xlink="http://www.w3.org/1999/xlink">
    <title>2.Regular/Indicativos y marcaciones_2Regular</title>
    <g id="Symbols" stroke="none" stroke-width="1" fill="none" fill-rule="evenodd">
        <g id="2.Regular/Indicativos-y-marcaciones_2Regular" fill="#5CB615" fill-rule="nonzero">
            <path d="M11.9764706,3.94621849 C13.2840336,3.94621849 14.097479,4.76302521 14.097479,6.07394958 L14.097479,8.93109244 C14.3193277,8.87058824 14.5478992,8.84033613 14.7764706,8.84369748 C15.7714286,8.84369748 16.4672269,9.33781513 16.7092437,10.1747899 C16.9579832,10.0941176 17.2201681,10.0571429 17.4823529,10.0571429 C18.4840336,10.0571429 19.1798319,10.5579832 19.4184874,11.4016807 C19.6672269,11.3243697 19.9260504,11.2840336 20.1882353,11.287395 C21.4386555,11.287395 22.2117647,12.0638655 22.2117647,13.3176471 L22.2117647,20.2016807 C22.2117647,21.1596639 21.9394958,21.9193277 21.4084034,22.4672269 C20.8773109,23.0151261 20.0369748,23.3243697 19.0621849,23.3243697 L11.3243697,23.3243697 C10.5478992,23.3243697 10.205042,22.5915966 10.0605042,22.2823529 C9.91932773,21.9831933 9.42857143,20.9915966 8.85714286,19.8420168 C7.94285714,18 6.80336134,15.707563 6.12773109,14.2823529 C5.73109244,13.4420168 5.88907563,12.5680672 6.53445378,12.0537815 C7.20336134,11.5193277 8.16134454,11.5327731 8.8605042,12.087395 C9.22352941,12.3764706 9.52605042,12.7731092 9.86218487,13.3411765 L9.86218487,6.0302521 C9.94621849,4.70588235 10.7193277,3.94621849 11.9764706,3.94621849 Z M11.9865546,5.2907563 C11.3882353,5.2907563 11.2504202,5.57310924 11.2134454,6.09747899 L11.2131527,7.00558896 C11.2124141,9.09134926 11.21072,13.9873722 11.2134454,14.3798319 C11.2168067,14.9512605 10.907563,15.4117647 10.4436975,15.5294118 C10.2016807,15.589916 9.58991597,15.6336134 9.09579832,14.7193277 C8.66218487,13.9159664 8.34957983,13.4016807 8.0302521,13.1495798 C7.79831933,12.9680672 7.52605042,12.9915966 7.37478992,13.112605 C7.18655462,13.2605042 7.25714286,13.5193277 7.34789916,13.7109244 C8.02016807,15.1260504 9.15294118,17.4117647 10.0672269,19.2470588 C10.6655462,20.4504202 11.1361345,21.3983193 11.2840336,21.7142857 C11.3176471,21.805042 11.3647059,21.892437 11.4218487,21.9798319 L19.0621849,21.9798319 C19.6672269,21.9798319 20.1714286,21.8184874 20.4470588,21.5327731 C20.7226891,21.2470588 20.8705882,20.8 20.8705882,20.205042 L20.8705882,13.3176471 C20.8705882,12.810084 20.692437,12.6319328 20.1915966,12.6319328 C19.6907563,12.6319328 19.512605,12.810084 19.512605,13.3176471 C19.512605,13.687395 19.210084,13.989916 18.8403361,13.989916 C18.4705882,13.989916 18.1680672,13.687395 18.1680672,13.3176471 L18.1680672,12.087395 C18.1680672,11.5798319 17.989916,11.4016807 17.4890756,11.4016807 C16.9882353,11.4016807 16.810084,11.5798319 16.810084,12.087395 C16.810084,12.4571429 16.507563,12.7596639 16.1378151,12.7596639 C15.7680672,12.7596639 15.4655462,12.4571429 15.4655462,12.087395 L15.4655462,10.8705882 C15.4655462,10.3630252 15.287395,10.1848739 14.7865546,10.1848739 C14.2857143,10.1848739 14.107563,10.3630252 14.107563,10.8705882 C14.107563,11.2403361 13.805042,11.5428571 13.4352941,11.5428571 C13.0655462,11.5428571 12.7630252,11.2403361 12.7630252,10.8705882 L12.7630252,6.07394958 C12.7630252,5.50252101 12.5512605,5.2907563 11.9865546,5.2907563 Z M3.45882353,7.89579832 C4.33613445,7.89579832 4.90756303,8.35630252 4.90756303,9.3512605 C4.90756303,9.82857143 4.77647059,10.1848739 4.54117647,10.4235294 C4.28907563,10.6857143 3.91596639,10.810084 3.45882353,10.810084 C3.00168067,10.810084 2.62857143,10.6823529 2.37647059,10.4235294 C2.14117647,10.1848739 2.01008403,9.82857143 2.01008403,9.3512605 C2.01008403,8.35966387 2.58151261,7.89579832 3.45882353,7.89579832 Z M7.7210084,7.89579832 C8.60168067,7.89579832 9.1697479,8.35630252 9.1697479,9.3512605 C9.1697479,9.82857143 9.03865546,10.1848739 8.80336134,10.4235294 C8.5512605,10.6857143 8.17815126,10.810084 7.7210084,10.810084 C7.26386555,10.810084 6.8907563,10.6823529 6.63865546,10.4235294 C6.40336134,10.1848739 6.27226891,9.82857143 6.27226891,9.3512605 C6.27226891,8.35966387 6.84369748,7.89579832 7.7210084,7.89579832 Z M3.45882353,3.96302521 C4.33613445,3.96302521 4.90756303,4.42352941 4.90756303,5.41848739 C4.90756303,5.89579832 4.77647059,6.25210084 4.54117647,6.4907563 C4.28907563,6.74957983 3.91596639,6.87394958 3.45882353,6.87394958 C3.00168067,6.87394958 2.62857143,6.74957983 2.37647059,6.4907563 C2.14117647,6.25210084 2.01008403,5.89579832 2.01008403,5.41848739 C2.01008403,4.42689076 2.58151261,3.96302521 3.45882353,3.96302521 Z M7.7210084,3.96302521 C8.60168067,3.96302521 9.1697479,4.42352941 9.1697479,5.41848739 C9.1697479,5.89579832 9.03865546,6.25210084 8.80336134,6.4907563 C8.5512605,6.74957983 8.17815126,6.87394958 7.7210084,6.87394958 C7.26386555,6.87394958 6.8907563,6.74957983 6.63865546,6.4907563 C6.40336134,6.25210084 6.27226891,5.89579832 6.27226891,5.41848739 C6.27226891,4.42689076 6.84369748,3.96302521 7.7210084,3.96302521 Z M3.45882353,0.0302521008 C4.33613445,0.0302521008 4.90756303,0.490756303 4.90756303,1.48571429 C4.90756303,1.96302521 4.77647059,2.31932773 4.54117647,2.55798319 C4.28907563,2.81680672 3.91596639,2.94117647 3.45882353,2.94117647 C3.00168067,2.94117647 2.62857143,2.81680672 2.37647059,2.55798319 C2.14117647,2.31596639 2.01008403,1.96302521 2.01008403,1.48571429 C2.01008403,0.490756303 2.58151261,0.0302521008 3.45882353,0.0302521008 Z M7.7210084,0.0302521008 C8.60168067,0.0302521008 9.1697479,0.490756303 9.1697479,1.48571429 C9.1697479,1.96302521 9.03865546,2.31932773 8.80336134,2.55798319 C8.5512605,2.81680672 8.17815126,2.94117647 7.7210084,2.94117647 C7.26386555,2.94117647 6.8907563,2.81680672 6.63865546,2.55798319 C6.40336134,2.31596639 6.27226891,1.96302521 6.27226891,1.48571429 C6.27226891,0.490756303 6.84369748,0.0302521008 7.7210084,0.0302521008 Z M11.9798319,0.0302521008 C12.8571429,0.0302521008 13.4285714,0.490756303 13.4285714,1.48571429 C13.4285714,1.96302521 13.297479,2.31932773 13.0621849,2.55798319 C12.810084,2.81680672 12.4369748,2.94117647 11.9798319,2.94117647 C11.5226891,2.94117647 11.1495798,2.81680672 10.897479,2.55798319 C10.6621849,2.31596639 10.5310924,1.96302521 10.5310924,1.48571429 C10.5310924,0.490756303 11.102521,0.0302521008 11.9798319,0.0302521008 Z" id="Indicativos-y-marcaciones_2Regular"></path>
        </g>
    </g>
</svg>

<svg width="24" height="24" viewBox="0 0 24 24" xmlns="http://www.w3.org/2000/svg"><path d="M11.976 3.946c1.308 0 2.121.817 2.121 2.128V8.93c.222-.06.45-.09.68-.087.994 0 1.69.494 1.932 1.33.249-.08.511-.117.773-.117 1.002 0 1.698.501 1.936 1.345.25-.078.508-.118.77-.115 1.25 0 2.024.777 2.024 2.03v6.885c0 .958-.273 1.717-.804 2.265-.53.548-1.371.857-2.346.857h-7.738c-.776 0-1.119-.732-1.263-1.042-.142-.299-.632-1.29-1.204-2.44-.914-1.842-2.054-4.134-2.73-5.56-.396-.84-.238-1.714.407-2.228.67-.535 1.627-.521 2.327.033.363.29.665.686 1.001 1.254v-7.31c.084-1.325.857-2.085 2.114-2.085zm.01 1.345c-.598 0-.736.282-.773.806v.909c0 2.085-.002 6.981 0 7.374.004.571-.305 1.032-.77 1.15-.241.06-.853.104-1.347-.81-.434-.804-.746-1.318-1.066-1.57-.232-.182-.504-.158-.655-.037-.188.148-.118.406-.027.598.672 1.415 1.805 3.7 2.72 5.536a204.089 204.089 0 011.216 2.467c.034.091.08.178.138.266h7.64c.605 0 1.11-.162 1.385-.447.276-.286.424-.733.424-1.328v-6.887c0-.508-.179-.686-.68-.686-.5 0-.678.178-.678.686 0 .37-.303.672-.673.672a.674.674 0 01-.672-.672v-1.23c0-.508-.178-.686-.679-.686-.5 0-.679.178-.679.685 0 .37-.302.673-.672.673a.674.674 0 01-.672-.673v-1.216c0-.508-.179-.686-.68-.686-.5 0-.678.178-.678.686 0 .37-.303.672-.673.672a.674.674 0 01-.672-.672V6.074c0-.571-.212-.783-.776-.783zM3.46 7.896c.877 0 1.449.46 1.449 1.455 0 .478-.132.834-.367 1.073-.252.262-.625.386-1.082.386-.457 0-.83-.128-1.083-.386-.235-.24-.366-.595-.366-1.073 0-.991.572-1.455 1.449-1.455zm4.262 0c.88 0 1.449.46 1.449 1.455 0 .478-.131.834-.367 1.073-.252.262-.625.386-1.082.386-.457 0-.83-.128-1.082-.386-.236-.24-.367-.595-.367-1.073 0-.991.572-1.455 1.449-1.455zM3.459 3.963c.877 0 1.449.46 1.449 1.455 0 .478-.132.834-.367 1.073-.252.259-.625.383-1.082.383-.457 0-.83-.124-1.083-.383-.235-.239-.366-.595-.366-1.073 0-.991.572-1.455 1.449-1.455zm4.262 0c.88 0 1.449.46 1.449 1.455 0 .478-.131.834-.367 1.073-.252.259-.625.383-1.082.383-.457 0-.83-.124-1.082-.383-.236-.239-.367-.595-.367-1.073 0-.991.572-1.455 1.449-1.455zM3.459.03c.877 0 1.449.46 1.449 1.456 0 .477-.132.833-.367 1.072-.252.259-.625.383-1.082.383-.457 0-.83-.124-1.083-.383-.235-.242-.366-.595-.366-1.072C2.01.49 2.582.03 3.46.03zm4.262 0c.88 0 1.449.46 1.449 1.456 0 .477-.131.833-.367 1.072-.252.259-.625.383-1.082.383-.457 0-.83-.124-1.082-.383-.236-.242-.367-.595-.367-1.072C6.272.49 6.844.03 7.721.03zm4.259 0c.877 0 1.449.46 1.449 1.456 0 .477-.132.833-.367 1.072-.252.259-.625.383-1.082.383-.457 0-.83-.124-1.083-.383-.235-.242-.366-.595-.366-1.072 0-.995.572-1.456 1.449-1.456z" fill="#5CB615" fill-rule="nonzero"/></svg>
